X: 1
T: Barlow Knife
M: 4/4
L: 1/8
R: reel
K: Dmaj
(3ABc| ~d2d2 cdec | d2d2 A2fe | ~d2de dcBA | B2A2 ~A2Bc | 
~d2d2 cdec | d2d2 A2fe | d2de dcBA | ~B2A2 ~A2FG |
|: B2A2 FEDE | B2A2 F2FG | B2A2 FEDD | ED3 ~D4 :|
|: E2EE F2D2 | EDEG FEDF | E2EE F2D2 | ABAG FED2 :|
